X:1
T:Canon in DDDDDDDD
T:Classical Big D
T:Johann Pachelbel Arr. by lemontart Big D'd by OpenSUTD 
%%score { ( 1 3 4 ) | ( 2 5 6 ) }
L:1/8
M:4/4
K:D
V:1 treble nm="Piano" snm="Pno."
V:3 treble 
V:4 treble 
V:2 bass 
V:5 bass 
V:6 bass 
V:1
!p! z8 | z8 | z8 |"^crescendo" z8 | f4 e4 | d/d/d/d/ d/d/d/d/ c4 | B4 A4 | B4 c4 | %8
 d/d/d/d/ d/d/d/d/ [Ace]4 | d/d/d/d/ d/d/d/d/ [FAc]4 | D/D/D/D/ D/D/D/D/ D/D/D/D/ D/D/D/D/ | %11
"^crescendo" D/D/D/D/ D/D/D/D/ [EAc]4 | d/d/d/d/ f2 a2 g2 | f2 d/d/d/d/ f3 e | %14
 d/d/d/d/ B2 d/d/d/d/ f2 | g2 b2 a3 g | d/d/d/d/ f2 [ea]2 g2 | d/d/d/d/ d/d/d/d/ [cf]3 e | %18
 d/d/d/d/ B2 d/d/d/d/ f2 | [Bg]2 b2 [ca]3 g | d/d/c d/d/A A2 c2 | d/d/d/d/ f2 a3 b | %22
 gfeg fe d/d/c | (BA) d/d/d/d/ d/d/d/d/ d/d/c | d/d/c d/d/A A2 c2 | d/d/d/d/ f2 a3 b | %26
 gfeg fe d/d/c | (BA) d/d/d/d/ d/d/d/d/ d/d/c | d/d/c d/d/A cAef | d/d/d/d/ cB cfab | %30
 gfeg fe d/d/c | BAGF EGFE | d/d/e fg aeag | fbag agfe | d/d/B Bc d/d/(f/e/ d/)d/f | %35
 g(d/c/ B)(c d/)d/d/d/ d/d/c |!f! a(f/g/ a)(f/g/ a/)A/B/c/ d/e/f/g/ | %37
 f(d/e/ f)(F/G/) A/B/A/G/ A/F/G/A/ | G(B/A/ G)(F/E/) F/E/D/E/ F/G/A/B/ | %39
 G(B/A/) B(c/d/) A/B/c/d/ e/f/g/a/ | a(f/g/ a)(f/g/ a/)A/B/c/ d/e/f/g/ | %41
 f(d/e/ f)(F/G/) A/B/A/G/ A/F/G/A/ | G(B/A/ G)(F/E/) F/E/D/E/ F/G/A/B/ | %43
 G(B/A/) B(c/d/) A/B/c/d/ e/f/g/a/ | f(d/e/ f)(e/d/) e/c/d/e/ f/e/d/c/ | %45
 d/d/(B/c/ d/)d/(d/e/) f/g/f/e/ f/d/c/d/ | B(d/c/ B)(A/G/) A/G/F/G/ A/B/c/d/ | %47
 B(d/c/ d/)d/(c/B/) c/A/B/c/ d/e/f/g/ | f(d/e/ f)(e/d/) e/c/d/e/ f/e/d/c/ | %49
 d/d/(B/c/ d/)d/(d/e/) f/g/f/e/ f/d/c/d/ | B(d/c/ B)(A/G/) A/G/F/G/ A/B/c/d/ | %51
 B(d/c/ d/)d/(c/B/) c/A/B/c/ d/e/f/g/ | ad/d/ fa abag | f3 f fgfe | d/d/=c Bc d/d/d/d/ A>A | %55
 d/d/=c Bc d/d/d/d/ ^c2 | a3 a abag | f3 f fgfe | d/d/=c Bc d/d/d/d/ A>A | %59
 d/d/=c Bc d/d/d/d/ d/d/^c | fFGF Eefe | d/d/F d/d/B AAGA | BBcB AAGA | BBAB ccBc | %64
 d/d/d/d/ ed/d/ cc d/d/c | BBAB ccfe | d/d/d/d/ eg fFAf | fgfg eAec | d/d/d/e/ fd/d/ [ce]c/d/ ec | %69
 d/d/B/c/ d/d/B [Ac]a/g/ fe | d/d/g/f/ eg [Af]d/e/ fa | [gb]b/a/ gb [ce]a/g/ fe | %72
 d/d/d/c/ d/d/A [Ae]A/B/ cA | d/d/d/e/ d/d/d/d/ [cf]f/e/ d/d/c | [GB]B/A/ Bc d/d/f/e/ d/d/f | %75
 [Bg]d/c/ Bc d/d/d/d/ c2 | d/d/d/d/ d/d/f fgfe | d/d/d/d/ d/d/d/d/ d/d/e d/d/c | %78
 [GB]4 d/d/d/d/ A2 | [GB]4 A3 c | d/d/d/d/ d/d/[fa] [fa][gb][fa][eg] | %81
 d/d/d/d/ d/d/d/d/ d/d/[eg] d/d/[ce] | d/d/=c Bc d/d/d/d/ A>F | d/d/=c Bc [A^c]3 c | %84
 d/d/d/d/ d/d/A ABAG | F3 F FGFE | d/d/=c Bc d/d/d/d/ A>A | d/d/=c Bc d/d/d/d/ ^c2 | A3 A ABAG | %89
 d/d/d/d/ d/d/d/d/ d/d/d/d/ [A=c]2 | [AB]2 G2 d/d/d/d/ A2 | [GB]4 [EA]4 | A2 d/d/d/d/ d/d/d/d/ e2 | %93
 d/d/d/d/ [dd']/[dd']/[dd']/[dd']/ [dd']/[dd']/[dd']/[dd']/ [ea=c']2 | %94
 d/d/d/d/ g2 d'/d'/d'/d'/ d/d/d/d/ | d/d/d/d/ d/d/e [cea]2 g2 | [Afa]4 A3 G | [Ff]4 f3 e | %98
 d/d/d/d/ d/d/d/d/ [fa]2 [Dd]/[Dd]/[Dd]/[Dd]/ | d/d/d/d/ d/d/e [Ee]3 [Ac]- | %100
 !fermata![Ac]4 !fermata![Dd]/-!fermata![Dd]/-!fermata![Dd]/-!fermata![Dd]/- !fermata![Dd]/-!fermata![Dd]/-!fermata![Dd]/-!fermata![Dd]/-!p! | %101
 [Dd]/[Dd]/[Dd]/[Dd]/ [Dd]/[Dd]/[Dd]/[Dd]/ [Dd]/[Dd]/[Dd]/[Dd]/ [Dd]/[Dd]/[Dd]/[Dd]/ | %102
V:2
 D,/D,/A, D/D/F A,,E,A,C | B,,F, B,D/D/ F,,C,F,A, | G,,D,/D,/ G,B, D,,/D,,/A,, D,/D,/F, | %3
 G,,D,/D,/ G,B, A,,E,A,C | D,/D,/A, D/D/F A,,E,A,C | B,,F, B,D/D/ F,,C,F,A, | %6
 G,,D,/D,/ G,B, D,,/D,,/A,, D,/D,/F, | G,,D,/D,/ G,B, A,,E,A,C | D,/D,/A, D/D/F A,,E,A,C | %9
 B,,F, B,D/D/ F,,C,F,A, | G,,D,/D,/ G,B, D,,/D,,/A,, D,/D,/F, | G,,D,/D,/ G,B, A,,E,A,C | %12
!mf! D,/D,/A, D/D/F A,,E,A,C | B,,F, B,D/D/ F,,C,F,A, | G,,D,/D,/ G,B, D,,/D,,/A,, D,/D,/F, | %15
 G,,D,/D,/ G,B, A,,E,A,C | D,/D,/A, D/D/F A,,E,A,C | B,,F, B,D/D/ F,,C,F,A, | %18
 G,,D,/D,/ G,B, D,,/D,,/A,, D,/D,/F, | G,,D,/D,/ G,B, A,,E,A,C | D,/D,/A, D/D/F A,,E,A,C | %21
 B,,F, B,D/D/ F,,C,F,A, | G,,D,/D,/ G,B, D,,/D,,/A,, D,/D,/F, | G,,D,/D,/ G,B, A,,E,A,C | %24
 D,/D,/A, D/D/F A,,E,A,C | B,,F, B,D/D/ F,,C,F,A, | G,,D,/D,/ G,B, D,,/D,,/A,, D,/D,/F, | %27
 G,,D,/D,/ G,B, A,,E,A,C | D,/D,/A, D/D/F A,,E,A,C | B,,F, B,D/D/ F,,C,F,A, | %30
 G,,D,/D,/ G,B, D,,/D,,/A,, D,/D,/F, | G,,D,/D,/ G,B, A,,E,A,C | D,/D,/A, D/D/F A,,E,A,C | %33
 B,,F, B,D/D/ F,,C,F,A, | G,,D,/D,/ G,B, D,,/D,,/A,, D,/D,/F, | G,,D,/D,/ G,B, A,,E,A,C | %36
 D,/D,/A, D/D/F A,,E,A,C | B,,F, B,D/D/ F,,C,F,A, | G,,D,/D,/ G,B, D,,/D,,/A,, D,/D,/F, | %39
 G,,D,/D,/ G,B, A,,E,A,C | D,/D,/A, D/D/F A,,E,A,C | B,,F, B,D/D/ F,,C,F,A, | %42
 G,,D,/D,/ G,B, D,,/D,,/A,, D,/D,/F, | G,,D,/D,/ G,B, A,,E,A,C | D,/D,/A, D/D/F A,,E,A,C | %45
 B,,F, B,D/D/ F,,C,F,A, | G,,D,/D,/ G,B, D,,/D,,/A,, D,/D,/F, | G,,D,/D,/ G,B, A,,E,A,C | %48
 D,/D,/A, D/D/F A,,E,A,C | B,,F, B,D/D/ F,,C,F,A, | G,,D,/D,/ G,B, D,,/D,,/A,, D,/D,/F, | %51
 G,,D,/D,/ G,B, A,,E,A,C |!mf! D,/D,/A, D/D/F A,,E,A,C | B,,F, B,D/D/ F,,C,F,A, | %54
 G,,D,/D,/ G,B, D,,/D,,/A,, D,/D,/F, | G,,D,/D,/ G,B, A,,E,A,C | D,/D,/A, D/D/F A,,E,A,C | %57
 B,,F, B,D/D/ F,,C,F,A, | G,,D,/D,/ G,B, D,,/D,,/A,, D,/D,/F, | G,,D,/D,/ G,B, A,,E,A,C | %60
 D,/D,/A, D/D/F A,,E,A,C | B,,F, B,D/D/ F,,C,F,A, | G,,D,/D,/ G,B, D,,/D,,/A,, D,/D,/F, | %63
 G,,D,/D,/ G,B, A,,E,A,C | D,/D,/A, D/D/F A,,E,A,C | B,,F, B,D/D/ F,,C,F,A, | %66
 G,,D,/D,/ G,B, D,,/D,,/A,, D,/D,/F, | G,,D,/D,/ G,B, A,,E,A,C | D,/D,/A, D/D/F A,,E,A,C | %69
 B,,F, B,D/D/ F,,C,F,A, | G,,D,/D,/ G,B, D,,/D,,/A,, D,/D,/F, | G,,D,/D,/ G,B, A,,E,A,C | %72
 D,/D,/A, D/D/F A,,E,A,C | B,,F, B,D/D/ F,,C,F,A, | G,,D,/D,/ G,B, D,,/D,,/A,, D,/D,/F, | %75
 G,,D,/D,/ G,B, A,,E,A,C | D,/D,/A, D/D/F A,,E,A,C | B,,F, B,D/D/ F,,C,F,A, | %78
 G,,D,/D,/ G,B, D,,/D,,/A,, D,/D,/F, | G,,D,/D,/ G,B, A,,E,A,C | D,/D,/A, D/D/F A,,E,A,C | %81
 B,,F, B,D/D/ F,,C,F,A, | G,,D,/D,/ G,B, D,,/D,,/A,, D,/D,/F, | G,,D,/D,/ G,B, A,,E,A,C | %84
 D,/D,/A, D/D/F A,,E,A,C | B,,F, B,D/D/ F,,C,F,A, | G,,D,/D,/ G,B, D,,/D,,/A,, D,/D,/F, | %87
 G,,D,/D,/ G,B, A,,E,A,C | D,/D,/A, D/D/F A,,E,A,C | B,,F, B,D/D/ F,,C,F,A, | %90
 G,,D,/D,/ G,B, D,,/D,,/A,, D,/D,/F, | G,,D,/D,/ G,B, A,,E,A,C | D,/D,/A, D/D/F A,,E,A,C | %93
 B,,F, B,D/D/ F,,C,F,A, | G,,D,/D,/ G,B, D,,/D,,/A,, D,/D,/F, | G,,D,/D,/ G,B, A,,E,A,C | %96
 D,/D,/A, D/D/F A,,E,A,C | B,,F, B,D/D/ F,,C,F,A, | G,,D,/D,/ G,B, D,,/D,,/A,, D,/D,/F, | %99
 G,,D,/D,/ G,B, A,,E,A,C- | C4 D,,/-D,,/-D,,/-D,,/- D,,/-D,,/-D,,/-D,,/- | %101
 D,,/D,,/D,,/D,,/ D,,/D,,/D,,/D,,/ D,,/D,,/D,,/D,,/ D,,/D,,/D,,/D,,/ | %102
V:3
 x8 | x8 | x8 | x8 | x8 | x8 | x8 | x8 | A4 x4 | F4 x4 | G4 F4 | G4 x4 | x8 | x8 | x8 | x8 | %16
 f2 x6 | f2 x6 | B2 A2 x4 | x8 | x8 | x8 | x8 | x8 | x8 | x8 | x8 | x8 | x8 | x8 | x8 | x8 | x8 | %33
 x8 | x8 | x8 | x8 | x8 | x8 | x8 | x8 | x8 | x8 | x8 | x8 | x8 | x8 | x8 | x8 | x8 | x8 | x8 | %52
 x8 | x8 | x8 | x8 | x8 | x8 | x8 | x8 | x8 | x8 | x8 | x8 | x8 | x8 | x8 | x8 | f x7 | B x7 | %70
 B x7 | x8 | f x7 | Bf x6 | x4 A x3 | x4 A2 x2 | A3 x5 | x8 | x8 | x8 | f3 x5 | f3 f ff x2 | B x7 | %83
 x8 | F3 x5 | x8 | x8 | x8 | x8 | c2 B4 x2 | x4 A2 x2 | x8 | x2 A4 x2 | F2 b4 x2 | a2 f2 f2 x2 | %95
 g3 x5 | x8 | x8 | g4 x4 | B3 x5 | x4 F4- | F8 | %102
V:4
 x8 | x8 | x8 | x8 | x8 | x8 | x8 | x8 | f4 x4 | B4 x4 | B4 A4 | B4 x4 | x8 | x8 | x8 | x8 | x8 | %17
 x8 | x8 | x8 | x8 | x8 | x8 | x8 | x8 | x8 | x8 | x8 | x8 | x8 | x8 | x8 | x8 | x8 | x8 | x8 | %36
 x8 | x8 | x8 | x8 | x8 | x8 | x8 | x8 | x8 | x8 | x8 | x8 | x8 | x8 | x8 | x8 | x8 | x8 | x8 | %55
 x8 | x8 | x8 | x8 | x8 | x8 | x8 | x8 | x8 | x8 | x8 | x8 | x8 | x8 | x8 | x8 | x8 | x8 | x8 | %74
 x8 | x4 e2 x2 | f3 x5 | x8 | x8 | x8 | a3 x5 | x8 | x8 | x8 | A3 x5 | x8 | x8 | x8 | x8 | x8 | %90
 x8 | x8 | x2 f4 x2 | c2 x6 | b2 a2 a2 x2 | b3 x5 | x8 | x8 | x8 | x8 | x4 A4- | A8 | %102
V:5
 x8 | x8 | x8 | x8 | x8 | x8 | x8 | x8 | x8 | x8 | x8 | x8 | x8 | x8 | x8 | x8 | x8 | x8 | x8 | %19
 x8 | x8 | x8 | x8 | x8 | x8 | x8 | x8 | x8 | x8 | x8 | x8 | x8 | x8 | x8 | x8 | x8 | x8 | x8 | %38
 x8 | x8 | x8 | x8 | x8 | x8 | x8 | x8 | x8 | x8 | x8 | x8 | x8 | x8 | x8 | x8 | x8 | x8 | x8 | %57
 x8 | x8 | x8 | x8 | x8 | x8 | x8 | x8 | x8 | x8 | x8 | x8 | x8 | x8 | x8 | x8 | x8 | x8 | x8 | %76
 x8 | x8 | x8 | x8 | x8 | x8 | x8 | x8 | x8 | x8 | x8 | x8 | x8 | x8 | x8 | x8 | x8 | x8 | x8 | %95
 x8 | x8 | x8 | x8 | x8 | x4 A,,4- | A,,8 | %102
V:6
 x8 | x8 | x8 | x8 | x8 | x8 | x8 | x8 | x8 | x8 | x8 | x8 | x8 | x8 | x8 | x8 | x8 | x8 | x8 | %19
 x8 | x8 | x8 | x8 | x8 | x8 | x8 | x8 | x8 | x8 | x8 | x8 | x8 | x8 | x8 | x8 | x8 | x8 | x8 | %38
 x8 | x8 | x8 | x8 | x8 | x8 | x8 | x8 | x8 | x8 | x8 | x8 | x8 | x8 | x8 | x8 | x8 | x8 | x8 | %57
 x8 | x8 | x8 | x8 | x8 | x8 | x8 | x8 | x8 | x8 | x8 | x8 | x8 | x8 | x8 | x8 | x8 | x8 | x8 | %76
 x8 | x8 | x8 | x8 | x8 | x8 | x8 | x8 | x8 | x8 | x8 | x8 | x8 | x8 | x8 | x8 | x8 | x8 | x8 | %95
 x8 | x8 | x8 | x8 | x8 | x4 F,4- | F,8 | %102

